X: 147
T: The Barley Mow
%R: jig
B: Chas & Sam Thompson "Twenty Four Country Dances for the Year 1779", London 1779, p.74 #1
F: http://www.vwml.org/browse/browse-collections-dance-tune-books/browse-thompsons1779
Z: 2014 John Chambers <jc:trillian.mit.edu> (added dance description)
N: The dance's 5th-8th phrases end with icons with fatter center lines that may have been double lines.
M: 6/8
L: 1/8
K: D
% - - - - - - - - - - - - - - - - - - - - - - - - - - - - -
A |\
A2B AFd | E2E EFG | AFB AFd | AFB AFD |\
BGB AFA | E2E EFG | AFB AFd | A2D D2 :|
|: A |\
d2g faf | g2e efg | aba afd | (ge)g (fd)f |\
geg fdf | e2E EFG | AFB AFd | A2D D2 :|
% - - - - - - - - - - Dance description - - - - - - - - - -
%%begintext align
%%  Hands round 3 with the 2d Wo. .|. the same with the
%% 2d Man :|. Cross over & half figure .|: lead thro' the
%% bottom and cast up :|: hands 3 round Man at the bottom
%% & the Wo. at top at the same time .||. Hey the same :||.
%% hands six half round & back again .||: Allemand half
%% round and back again :||:
%%endtext

%%sep 1 1 500
%%sep 1 1 500
